logos/dotenv-wordmark.svg

<?xml version="1.0" encoding="UTF-8"?>
<svg width="106px" height="24px" viewBox="0 0 106 24" version="1.1" xmlns="http://www.w3.org/2000/svg" xmlns:xlink="http://www.w3.org/1999/xlink">
    <!-- Generator: Sketch 59.1 (86144) - https://sketch.com -->
    <title>Group 4</title>
    <desc>Created with Sketch.</desc>
    <g id="Logo-Canonical" stroke="none" stroke-width="1" fill="none" fill-rule="evenodd">
        <g id="Group-4">
            <g id="Group-3">
                <rect id="Rectangle" fill="#000000" x="0" y="0" width="24" height="24"></rect>
                <g id="dotenv" fill="#ECD53F" fill-rule="nonzero">
                    <path d="M24,0 L24,24 L0,24 L0,0 L24,0 Z M10.93296,15.8892 L6.84,15.8892 L6.84,21.4092 L11.03832,21.4092 L11.03832,20.4792 L7.95456,20.4792 L7.95456,18.9768 L10.72584,18.9768 L10.72584,18.0468 L7.95456,18.0468 L7.95456,16.82304 L10.93296,16.82304 L10.93296,15.8892 Z M13.07916,15.8892 L11.99472,15.8892 L11.99472,21.4092 L13.0302,21.4092 L13.0302,17.80956 L15.2556,21.4092 L16.37388,21.4092 L16.37388,15.8892 L15.33828,15.8892 L15.33828,19.5756 L13.07916,15.8892 Z M18.19632,15.8892 L16.98756,15.8892 L18.9606,21.4092 L20.1504,21.4092 L22.12728,15.8892 L20.94504,15.8892 L19.59324,19.9746 L18.19632,15.8892 Z M5.4,19.68 L3.72,19.68 L3.72,21.36 L5.4,21.36 L5.4,19.68 Z" id="Combined-Shape"></path>
                </g>
            </g>
            <path d="M40.683,14.02 C40.683,14.5106691 40.6370005,14.9859977 40.545,15.446 C40.4529995,15.9060023 40.2996677,16.3161649 40.085,16.6765 C39.8703323,17.0368351 39.5828351,17.3243323 39.2225,17.539 C38.8621649,17.7536677 38.4136693,17.861 37.877,17.861 C37.3709975,17.861 36.9378351,17.7498344 36.5775,17.5275 C36.2171649,17.3051656 35.9181679,17.0138351 35.6805,16.6535 C35.4428321,16.2931649 35.2703339,15.8830023 35.163,15.423 C35.0556661,14.9629977 35.002,14.5030023 35.002,14.043 C35.002,13.5523309 35.0518328,13.0808356 35.1515,12.6285 C35.2511672,12.1761644 35.4121656,11.7736684 35.6345,11.421 C35.8568344,11.0683316 36.1519982,10.7846677 36.52,10.57 C36.8880018,10.3553323 37.3403306,10.248 37.877,10.248 C38.4136693,10.248 38.8583316,10.3553323 39.211,10.57 C39.5636684,10.7846677 39.8511656,11.0644983 40.0735,11.4095 C40.2958344,11.7545017 40.4529995,12.1531644 40.545,12.6055 C40.6370005,13.0578356 40.683,13.5293309 40.683,14.02 Z M40.729,18.482 L40.729,20 L43.834,20 L43.834,3.578 L40.568,3.578 L40.568,9.558 L40.522,9.558 C40.1539982,8.97533042 39.6518365,8.5345015 39.0155,8.2355 C38.3791635,7.93649851 37.7083369,7.787 37.003,7.787 C36.1289956,7.787 35.3623366,7.95949827 34.703,8.3045 C34.0436634,8.64950172 33.4955022,9.10566383 33.0585,9.673 C32.6214978,10.2403362 32.2918344,10.8958296 32.0695,11.6395 C31.8471656,12.3831704 31.736,13.1536627 31.736,13.951 C31.736,14.7790041 31.8471656,15.5763295 32.0695,16.343 C32.2918344,17.1096705 32.6214978,17.7881637 33.0585,18.3785 C33.4955022,18.9688363 34.05133,19.4364983 34.726,19.7815 C35.40067,20.1265017 36.1826622,20.299 37.072,20.299 C37.8540039,20.299 38.5554969,20.1571681 39.1765,19.8735 C39.7975031,19.5898319 40.2996647,19.1260032 40.683,18.482 L40.729,18.482 Z M49.193,14.066 C49.193,13.5906643 49.2389995,13.1230023 49.331,12.663 C49.4230005,12.2029977 49.5801656,11.7966684 49.8025,11.444 C50.0248344,11.0913316 50.3199982,10.8038344 50.688,10.5815 C51.0560018,10.3591656 51.5159972,10.248 52.068,10.248 C52.6200028,10.248 53.0838315,10.3591656 53.4595,10.5815 C53.8351685,10.8038344 54.1341656,11.0913316 54.3565,11.444 C54.5788344,11.7966684 54.7359995,12.2029977 54.828,12.663 C54.9200005,13.1230023 54.966,13.5906643 54.966,14.066 C54.966,14.5413357 54.9200005,15.0051644 54.828,15.4575 C54.7359995,15.9098356 54.5788344,16.3161649 54.3565,16.6765 C54.1341656,17.0368351 53.8351685,17.3243323 53.4595,17.539 C53.0838315,17.7536677 52.6200028,17.861 52.068,17.861 C51.5159972,17.861 51.0560018,17.7536677 50.688,17.539 C50.3199982,17.3243323 50.0248344,17.0368351 49.8025,16.6765 C49.5801656,16.3161649 49.4230005,15.9098356 49.331,15.4575 C49.2389995,15.0051644 49.193,14.5413357 49.193,14.066 Z M45.927,14.066 C45.927,15.0166714 46.0726652,15.8753295 46.364,16.642 C46.6553348,17.4086705 47.0693306,18.0641639 47.606,18.6085 C48.1426693,19.1528361 48.7866629,19.5706652 49.538,19.862 C50.2893371,20.1533348 51.132662,20.299 52.068,20.299 C53.003338,20.299 53.8504962,20.1533348 54.6095,19.862 C55.3685038,19.5706652 56.0163306,19.1528361 56.553,18.6085 C57.0896694,18.0641639 57.5036652,17.4086705 57.795,16.642 C58.0863348,15.8753295 58.232,15.0166714 58.232,14.066 C58.232,13.1153286 58.0863348,12.2528372 57.795,11.4785 C57.5036652,10.7041628 57.0896694,10.0448361 56.553,9.5005 C56.0163306,8.95616395 55.3685038,8.5345015 54.6095,8.2355 C53.8504962,7.93649851 53.003338,7.787 52.068,7.787 C51.132662,7.787 50.2893371,7.93649851 49.538,8.2355 C48.7866629,8.5345015 48.1426693,8.95616395 47.606,9.5005 C47.0693306,10.0448361 46.6553348,10.7041628 46.364,11.4785 C46.0726652,12.2528372 45.927,13.1153286 45.927,14.066 Z M64.488,8.109 L64.488,4.544 L61.222,4.544 L61.222,8.109 L59.244,8.109 L59.244,10.294 L61.222,10.294 L61.222,17.309 C61.222,17.907003 61.3216657,18.3899982 61.521,18.758 C61.7203343,19.1260018 61.9924983,19.4096657 62.3375,19.609 C62.6825017,19.8083343 63.0811644,19.9424997 63.5335,20.0115 C63.9858356,20.0805003 64.4649975,20.115 64.971,20.115 C65.2930016,20.115 65.622665,20.1073334 65.96,20.092 C66.297335,20.0766666 66.6039986,20.0460002 66.88,20 L66.88,17.47 C66.7266659,17.5006668 66.5656675,17.5236666 66.397,17.539 C66.2283325,17.5543334 66.0520009,17.562 65.868,17.562 C65.3159972,17.562 64.9480009,17.4700009 64.764,17.286 C64.5799991,17.1019991 64.488,16.7340028 64.488,16.182 L64.488,10.294 L66.88,10.294 L66.88,8.109 L64.488,8.109 Z M76.448,12.778 L71.135,12.778 C71.1503334,12.5479988 71.2001662,12.2873348 71.2845,11.996 C71.3688338,11.7046652 71.514499,11.428668 71.7215,11.168 C71.928501,10.907332 72.2044983,10.6888342 72.5495,10.5125 C72.8945017,10.3361658 73.3276641,10.248 73.849,10.248 C74.6463373,10.248 75.240498,10.4626645 75.6315,10.892 C76.022502,11.3213355 76.2946659,11.9499959 76.448,12.778 Z M71.135,14.848 L79.714,14.848 C79.7753336,13.9279954 79.6986677,13.0463376 79.484,12.203 C79.2693323,11.3596625 78.9205024,10.6083366 78.4375,9.949 C77.9544976,9.28966337 77.3373371,8.76450196 76.586,8.3735 C75.8346629,7.98249804 74.9530051,7.787 73.941,7.787 C73.0363288,7.787 72.2121704,7.94799839 71.4685,8.27 C70.7248296,8.59200161 70.0846694,9.03283053 69.548,9.5925 C69.0113306,10.1521695 68.5973348,10.8153295 68.306,11.582 C68.0146652,12.3486705 67.869,13.1766622 67.869,14.066 C67.869,14.9860046 68.0108319,15.8293295 68.2945,16.596 C68.5781681,17.3626705 68.9806641,18.0219972 69.502,18.574 C70.0233359,19.1260028 70.6596629,19.5514985 71.411,19.8505 C72.1623371,20.1495015 73.005662,20.299 73.941,20.299 C75.2903401,20.299 76.4403286,19.9923364 77.391,19.379 C78.3416714,18.7656636 79.0469977,17.7460071 79.507,16.32 L76.632,16.32 C76.5246661,16.6880018 76.2333357,17.0368317 75.758,17.3665 C75.2826643,17.6961683 74.7153366,17.861 74.056,17.861 C73.1359954,17.861 72.4306691,17.6233357 71.94,17.148 C71.4493309,16.6726643 71.1810002,15.9060053 71.135,14.848 Z M81.646,8.109 L81.646,20 L84.912,20 L84.912,13.767 C84.912,12.5556606 85.1113313,11.6855026 85.51,11.1565 C85.9086687,10.6274974 86.5526622,10.363 87.442,10.363 C88.2240039,10.363 88.7683318,10.6044976 89.075,11.0875 C89.3816682,11.5705024 89.535,12.3026618 89.535,13.284 L89.535,20 L92.801,20 L92.801,12.686 C92.801,11.9499963 92.735834,11.2791697 92.6055,10.6735 C92.475166,10.0678303 92.2490016,9.55416877 91.927,9.1325 C91.6049984,8.71083122 91.1641695,8.38116786 90.6045,8.1435 C90.0448305,7.90583215 89.3280044,7.787 88.454,7.787 C87.7639966,7.787 87.0893366,7.94416509 86.43,8.2585 C85.7706634,8.57283491 85.2340021,9.07499655 84.82,9.765 L84.751,9.765 L84.751,8.109 L81.646,8.109 Z M101.863,20 L98.229,20 L94.158,8.109 L97.585,8.109 L100.092,16.228 L100.138,16.228 L102.645,8.109 L105.888,8.109 L101.863,20 Z" id="dotenv" fill="#000000" fill-rule="nonzero"></path>
        </g>
    </g>
</svg>

<svg viewBox="0 0 106 24" xmlns="http://www.w3.org/2000/svg"><title>.ENV</title><g fill="none" fill-rule="evenodd"><path fill="#000" d="M0 0h24v24H0z"/><path d="M24 0v24H0V0h24ZM10.933 15.89H6.84v5.52h4.198v-.93H7.955v-1.503h2.77v-.93h-2.77v-1.224h2.978v-.934Zm2.146 0h-1.084v5.52h1.035v-3.6l2.226 3.6h1.118v-5.52h-1.036v3.686l-2.259-3.687Zm5.117 0h-1.208l1.973 5.52h1.19l1.976-5.52h-1.182l-1.352 4.085-1.397-4.086ZM5.4 19.68H3.72v1.68H5.4v-1.68Z" fill="#ECD53F" fill-rule="nonzero"/><path d="M40.683 14.02c0 .49-.046.966-.138 1.426-.092.46-.245.87-.46 1.23-.215.36-.502.648-.863.863-.36.215-.808.322-1.345.322-.506 0-.94-.111-1.3-.334a2.87 2.87 0 0 1-.896-.873c-.238-.36-.41-.771-.518-1.231a6.055 6.055 0 0 1-.161-1.38c0-.49.05-.962.15-1.414.1-.453.26-.855.483-1.208.222-.353.517-.636.885-.851.368-.215.82-.322 1.357-.322s.981.107 1.334.322c.353.215.64.494.863.84.222.345.379.743.471 1.195.092.453.138.924.138 1.415Zm.046 4.462V20h3.105V3.578h-3.266v5.98h-.046a3.506 3.506 0 0 0-1.506-1.322 4.676 4.676 0 0 0-2.013-.449c-.874 0-1.64.172-2.3.518a4.93 4.93 0 0 0-1.645 1.368 6.008 6.008 0 0 0-.989 1.966 8.026 8.026 0 0 0-.333 2.312c0 .828.111 1.625.333 2.392.223.767.552 1.445.99 2.035a4.71 4.71 0 0 0 1.667 1.404c.675.345 1.457.517 2.346.517.782 0 1.483-.142 2.104-.425.622-.284 1.124-.748 1.507-1.392h.046Zm8.464-4.416c0-.475.046-.943.138-1.403.092-.46.25-.866.471-1.219.223-.353.518-.64.886-.863.368-.222.828-.333 1.38-.333.552 0 1.016.111 1.392.334.375.222.674.51.896.862.223.353.38.759.472 1.219a7.136 7.136 0 0 1 0 2.794c-.092.453-.25.86-.472 1.22-.222.36-.52.647-.897.862-.375.215-.839.322-1.391.322s-1.012-.107-1.38-.322a2.511 2.511 0 0 1-.886-.863 3.707 3.707 0 0 1-.471-1.218 6.964 6.964 0 0 1-.138-1.392Zm-3.266 0c0 .95.146 1.81.437 2.576a5.588 5.588 0 0 0 1.242 1.966c.537.545 1.18.963 1.932 1.254.751.291 1.595.437 2.53.437.935 0 1.782-.146 2.541-.437a5.413 5.413 0 0 0 1.944-1.253c.537-.545.95-1.2 1.242-1.967.291-.767.437-1.625.437-2.576 0-.95-.146-1.813-.437-2.588a5.568 5.568 0 0 0-1.242-1.977 5.543 5.543 0 0 0-1.944-1.265c-.759-.3-1.606-.449-2.541-.449-.935 0-1.779.15-2.53.449A5.565 5.565 0 0 0 47.606 9.5a5.568 5.568 0 0 0-1.242 1.979c-.291.774-.437 1.636-.437 2.587Zm18.561-5.957V4.544h-3.266v3.565h-1.978v2.185h1.978v7.015c0 .598.1 1.081.299 1.449.2.368.471.652.816.851.346.2.744.333 1.196.402.453.07.932.104 1.438.104.322 0 .652-.008.989-.023.337-.015.644-.046.92-.092v-2.53c-.153.03-.314.054-.483.069a5.847 5.847 0 0 1-.529.023c-.552 0-.92-.092-1.104-.276-.184-.184-.276-.552-.276-1.104v-5.888h2.392V8.109h-2.392Zm11.96 4.669h-5.313c.015-.23.065-.49.15-.782a2.401 2.401 0 0 1 1.264-1.484c.346-.176.779-.264 1.3-.264.797 0 1.391.215 1.782.644.392.43.664 1.058.817 1.886Zm-5.313 2.07h8.579a8.395 8.395 0 0 0-.23-2.645 6.474 6.474 0 0 0-1.046-2.254 5.279 5.279 0 0 0-1.852-1.575c-.751-.392-1.633-.587-2.645-.587-.905 0-1.729.161-2.472.483a5.846 5.846 0 0 0-1.921 1.322 5.83 5.83 0 0 0-1.242 1.99 6.935 6.935 0 0 0-.437 2.484c0 .92.142 1.763.425 2.53a5.745 5.745 0 0 0 1.208 1.978 5.26 5.26 0 0 0 1.909 1.276c.751.3 1.595.449 2.53.449 1.35 0 2.5-.307 3.45-.92.95-.613 1.656-1.633 2.116-3.059h-2.875c-.107.368-.399.717-.874 1.046-.475.33-1.043.495-1.702.495-.92 0-1.625-.238-2.116-.713-.49-.475-.759-1.242-.805-2.3Zm10.511-6.739V20h3.266v-6.233c0-1.211.2-2.081.598-2.61.399-.53 1.043-.794 1.932-.794.782 0 1.326.241 1.633.725.307.483.46 1.215.46 2.196V20h3.266v-7.314c0-.736-.065-1.407-.195-2.012-.13-.606-.357-1.12-.679-1.541-.322-.422-.763-.752-1.323-.99-.56-.237-1.276-.356-2.15-.356-.69 0-1.365.157-2.024.471-.66.315-1.196.817-1.61 1.507h-.069V8.109h-3.105ZM101.863 20h-3.634L94.158 8.109h3.427l2.507 8.119h.046l2.507-8.119h3.243L101.863 20Z" fill="#000" fill-rule="nonzero"/></g></svg>
